build/svg/cmd/sc_mergecells.svg

<svg xmlns="http://www.w3.org/2000/svg" viewBox="0 0 16 16">/&gt;<path fill="#fff" d="M3 3h10v10H3z"/><path d="M2 4v8c0 2 1 2 3 2h6c2 0 3 0 3-2V4c0-2-1-2-3-2H5C3 2 2 2 2 4zm1 0c0-1 1-1 2-1h1v2H3zm4-1h2v2H7zm3 0h1c1 0 2 0 2 1v1h-3zM3 6h3v3H3zm4 0h6v6c0 1-1 1-2 1H7V9zm-4 4h3v3H5c-1 0-2 0-2-1z" fill="#6d6d6d"/></svg>

<?xml version="1.0" encoding="UTF-8" standalone="no"?>
<svg
   xmlns:dc="http://purl.org/dc/elements/1.1/"
   xmlns:cc="http://creativecommons.org/ns#"
   xmlns:rdf="http://www.w3.org/1999/02/22-rdf-syntax-ns#"
   xmlns:svg="http://www.w3.org/2000/svg"
   xmlns="http://www.w3.org/2000/svg"
   xmlns:sodipodi="http://sodipodi.sourceforge.net/DTD/sodipodi-0.dtd"
   xmlns:inkscape="http://www.inkscape.org/namespaces/inkscape"
   viewBox="0 0 16 16"
   version="1.1"
   id="svg4"
   sodipodi:docname="sc_mergecells.svg"
   inkscape:version="0.92.4 (5da689c313, 2019-01-14)"
   inkscape:export-filename="/home/jupiter007/Libreoffice yaru theme fullcolor/build/cmd/sc_mergecells.png"
   inkscape:export-xdpi="95"
   inkscape:export-ydpi="95"><metadata
   id="metadata10">
  <rdf:RDF>
    <cc:Work
       rdf:about="">
      <dc:format>image/svg+xml</dc:format>
      <dc:type
         rdf:resource="http://purl.org/dc/dcmitype/StillImage" />
    </cc:Work>
  </rdf:RDF>
</metadata>
<defs
   id="defs8" />
<sodipodi:namedview
   pagecolor="#ffffff"
   bordercolor="#666666"
   borderopacity="1"
   objecttolerance="10"
   gridtolerance="10"
   guidetolerance="10"
   inkscape:pageopacity="0"
   inkscape:pageshadow="2"
   inkscape:window-width="1920"
   inkscape:window-height="1011"
   id="namedview6"
   showgrid="true"
   inkscape:zoom="41.7193"
   inkscape:cx="7.1463753"
   inkscape:cy="10.050102"
   inkscape:window-x="0"
   inkscape:window-y="32"
   inkscape:window-maximized="1"
   inkscape:current-layer="svg4">
  <inkscape:grid
     type="xygrid"
     id="grid817" />
</sodipodi:namedview>

/&gt;<rect
   style="opacity:1;fill:#ffffff;fill-opacity:1;stroke:none;stroke-width:2;stroke-linecap:round;stroke-linejoin:round;stroke-miterlimit:4;stroke-dasharray:none;stroke-opacity:1"
   id="rect816"
   width="10"
   height="10"
   x="3"
   y="3" />
<path
   d="m 2,4 v 8 c 0,2 1,2 3,2 h 4 1 1 c 2,0 3,0 3,-2 V 4 C 14,2 13,2 11,2 H 5 C 3,2 2,2 2,4 Z M 3,4 C 3,3 4,3 5,3 H 6 V 5 H 3 Z M 7,3 H 9 V 5 H 7 Z m 3,0 h 1 c 1,0 2,0 2,1 V 5 H 12 11 10 Z M 3,6 H 6 V 9 H 3 Z m 4,0 h 2 1 3 v 3 3 c 0,1 -1,1 -2,1 H 10 9 7 V 10 9 Z m -4,4 h 3 v 3 H 5 C 4,13 3,13 3,12 Z"
   id="path2"
   inkscape:connector-curvature="0"
   style="fill:#6d6d6d;fill-opacity:1"
   sodipodi:nodetypes="cccccccccccccccccccccccccccccccccccccccccccccccccccccc" />
</svg>
